SVG_Azure_Grouped/Management/Workflow Automation.svg

<?xml version="1.0" encoding="UTF-8" standalone="no"?>
<!-- Generated by Microsoft Visio, SVG Export Workflow Automation.svg Page-1 -->

<svg
   xmlns:dc="http://purl.org/dc/elements/1.1/"
   xmlns:cc="http://creativecommons.org/ns#"
   xmlns:rdf="http://www.w3.org/1999/02/22-rdf-syntax-ns#"
   xmlns:svg="http://www.w3.org/2000/svg"
   xmlns="http://www.w3.org/2000/svg"
   xmlns:sodipodi="http://sodipodi.sourceforge.net/DTD/sodipodi-0.dtd"
   xmlns:inkscape="http://www.inkscape.org/namespaces/inkscape"
   width="0.7874034in"
   height="0.78740144in"
   viewBox="0 0 56.693008 56.69285"
   xml:space="preserve"
   class="st4"
   version="1.1"
   id="svg35"
   sodipodi:docname="Workflow Automation.svg"
   style="font-size:12px;overflow:visible;color-interpolation-filters:sRGB;fill:none;fill-rule:evenodd;stroke-linecap:square;stroke-miterlimit:3"
   inkscape:version="0.92.5 (2060ec1f9f, 2020-04-08)"><metadata
   id="metadata39"><rdf:RDF><cc:Work
       rdf:about=""><dc:format>image/svg+xml</dc:format><dc:type
         rdf:resource="http://purl.org/dc/dcmitype/StillImage" /></cc:Work></rdf:RDF></metadata><sodipodi:namedview
   pagecolor="#ffffff"
   bordercolor="#666666"
   borderopacity="1"
   objecttolerance="10"
   gridtolerance="10"
   guidetolerance="10"
   inkscape:pageopacity="0"
   inkscape:pageshadow="2"
   inkscape:window-width="640"
   inkscape:window-height="480"
   id="namedview37"
   showgrid="false"
   inkscape:zoom="1.4399713"
   inkscape:cx="37.795352"
   inkscape:cy="36.591747"
   inkscape:window-x="0"
   inkscape:window-y="0"
   inkscape:window-maximized="0"
   inkscape:current-layer="svg35" />
	<style
   type="text/css"
   id="style2">
	<![CDATA[
		.st1 {fill:#308ce2;stroke:none;stroke-linecap:butt;stroke-width:32.2105}
		.st2 {fill:#ffffff;stroke:none;stroke-linecap:butt;stroke-width:32.2105}
		.st3 {fill:url(#grad0-10);stroke:none;stroke-linecap:butt;stroke-width:32.2105}
		.st4 {fill:none;fill-rule:evenodd;font-size:12px;overflow:visible;stroke-linecap:square;stroke-miterlimit:3}
	]]>
	</style>

	<defs
   id="Patterns_And_Gradients">
		<linearGradient
   id="grad0-10"
   x1="0"
   y1="67.766142"
   x2="55.165"
   y2="67.766142"
   gradientTransform="scale(1.0000906,0.99990937)"
   gradientUnits="userSpaceOnUse">
			<stop
   offset="0"
   stop-color="#33c2e1"
   stop-opacity="1"
   id="stop4" />
			<stop
   offset="1"
   stop-color="#6fd8ef"
   stop-opacity="1"
   id="stop6" />
		</linearGradient>
	</defs>
	<g
   id="g33"
   transform="translate(-32.2105,-32.21044)">
		<title
   id="title10">Page-1</title>
		<g
   id="group11914-1"
   transform="translate(32.2105,-34.0157)">
			<title
   id="title12">Workflow Automation.11914</title>
			<g
   id="group11915-2">
				<title
   id="title14">Sheet.11915</title>
				<g
   id="shape11916-3"
   transform="translate(29.115)">
					<title
   id="title16">Sheet.11916</title>
					<circle
   cx="13.789"
   cy="109.13"
   class="st1"
   id="ellipse18"
   r="13.789"
   style="fill:#308ce2;stroke:none;stroke-width:32.21049881;stroke-linecap:butt" />
				</g>
				<g
   id="shape11917-5"
   transform="translate(39.8268,-7.64409)">
					<title
   id="title21">Sheet.11917</title>
					<path
   d="M 9.09,116.62 0.47,110.64 H 0.15 c 0,0.15 -0.15,0.15 -0.15,0.31 v 11.65 c 0,0.16 0,0.16 0.15,0.32 h 0.32 l 8.62,-5.82 a 0.289764,0.289764 -180 0 0 0,-0.47559 z"
   class="st2"
   id="path23"
   inkscape:connector-curvature="0"
   style="fill:#ffffff;stroke:none;stroke-width:32.21049881;stroke-linecap:butt" />
				</g>
				<g
   id="shape11918-7"
   transform="translate(0,-1.53386)">
					<title
   id="title26">Sheet.11918</title>
					<path
   d="m 26.49,110.66 a 16.1984,16.1984 0 0 1 1.16,-5.95 h -0.07 a 9.37953,9.37953 0 1 1 9.38,-9.38 v 0.07 a 16.1039,16.1039 0 0 1 17.12,3.31 l 1.09,-0.4 v -6.3 l -0.89,-0.31 -6.72,-2.21 -1.77,-4.3 3.42,-7.28 -4.41,-4.41 -0.88,0.44 -6.3,3.2 -4.3,-1.76 -2.77,-7.62 h -6.3 l -0.31,0.88 -2.21,6.73 -4.3,1.77 -7.17,-3.42 -4.41,4.41 0.44,0.88 3.2,6.3 -1.76,4.3 L 0,92.36 v 6.3 l 0.88,0.33 6.73,2.21 1.77,4.3 -3.42,7.27 4.41,4.41 0.88,-0.44 6.3,-3.2 4.3,1.77 2.76,7.61 h 6.3 l 0.3,-0.8 a 16.3465,16.3465 0 0 1 -4.72,-11.46 z"
   class="st3"
   id="path28"
   inkscape:connector-curvature="0"
   style="fill:url(#grad0-10);stroke:none;stroke-width:32.21049881;stroke-linecap:butt" />
				</g>
			</g>
		</g>
	</g>
</svg>

<?xml version="1.0" encoding="UTF-8" standalone="no"?>
<!DOCTYPE svg PUBLIC "-//W3C//DTD SVG 1.1//EN" "http://www.w3.org/Graphics/SVG/1.1/DTD/svg11.dtd">
<!-- Generated by Microsoft Visio, SVG Export Workflow Automation.svg Page-1 -->
<svg xmlns="http://www.w3.org/2000/svg" xmlns:xlink="http://www.w3.org/1999/xlink" xmlns:ev="http://www.w3.org/2001/xml-events"
		width="1.68214in" height="1.70721in" viewBox="0 0 121.114 122.919" xml:space="preserve" color-interpolation-filters="sRGB"
		class="st4">
	<style type="text/css">
	<![CDATA[
		.st1 {fill:#308ce2;stroke:none;stroke-linecap:butt;stroke-width:32.2105}
		.st2 {fill:#ffffff;stroke:none;stroke-linecap:butt;stroke-width:32.2105}
		.st3 {fill:url(#grad0-10);stroke:none;stroke-linecap:butt;stroke-width:32.2105}
		.st4 {fill:none;fill-rule:evenodd;font-size:12px;overflow:visible;stroke-linecap:square;stroke-miterlimit:3}
	]]>
	</style>

	<defs id="Patterns_And_Gradients">
		<linearGradient id="grad0-10" x1="0" y1="0" x2="1" y2="0" gradientTransform="rotate(90 0.5 0.5)">
			<stop offset="0" stop-color="#33c2e1" stop-opacity="1"/>
			<stop offset="1" stop-color="#6fd8ef" stop-opacity="1"/>
		</linearGradient>
	</defs>
	<g>
		<title>Page-1</title>
		<g id="group11635-1" transform="translate(32.2105,-34.0157)">
			<title>Workflow Automation.11635</title>
			<g id="group11636-2">
				<title>Sheet.11636</title>
				<g id="shape11637-3" transform="translate(29.115,1.42109E-14)">
					<title>Sheet.11637</title>
					<ellipse cx="13.789" cy="109.13" rx="13.789" ry="13.789" class="st1"/>
				</g>
				<g id="shape11638-5" transform="translate(39.8268,-7.64409)">
					<title>Sheet.11638</title>
					<path d="M9.09 116.62 L0.47 110.64 L0.15 110.64 C0.15 110.79 0 110.79 0 110.95 L0 122.6 C0 122.76 0 122.76 0.15
								 122.92 L0.47 122.92 L9.09 117.1 a0.289764 0.289764 -180 0 0 -5.32907E-15 -0.475591 Z" class="st2"/>
				</g>
				<g id="shape11639-7" transform="translate(2.8777E-13,-1.53386)">
					<title>Sheet.11639</title>
					<path d="M26.49 110.66 A16.1984 16.1984 0 0 1 27.65 104.71 L27.58 104.71 A9.37953 9.37953 0 1 1 36.96 95.33 L36.96
								 95.4 A16.1039 16.1039 0 0 1 54.08 98.71 L55.17 98.31 L55.17 92.01 L54.28 91.7 L47.56 89.49 L45.79
								 85.19 L49.21 77.91 L44.8 73.5 L43.92 73.94 L37.62 77.14 L33.32 75.38 L30.55 67.76 L24.25 67.76 L23.94
								 68.64 L21.73 75.37 L17.43 77.14 L10.26 73.72 L5.85 78.13 L6.29 79.01 L9.49 85.31 L7.73 89.61 L0
								 92.36 L0 98.66 L0.88 98.99 L7.61 101.2 L9.38 105.5 L5.96 112.77 L10.37 117.18 L11.25 116.74 L17.55
								 113.54 L21.85 115.31 L24.61 122.92 L30.91 122.92 L31.21 122.12 A16.3465 16.3465 0 0 1 26.49 110.66
								 Z" class="st3"/>
				</g>
			</g>
		</g>
	</g>
</svg>
